packages/foundations/assets/icons/functional/images/maps/map_20.svg

<svg width="20" height="20" viewBox="0 0 20 20" fill="none" xmlns="http://www.w3.org/2000/svg">
<g clip-path="url(#clip0_186_74)">
<path fill-rule="evenodd" clip-rule="evenodd" d="M7.6562 2.125L12.9375 3.875L16.5 2.0938C16.6505 2.0185 16.8125 2 17.0625 2C17.5 2 18 2.3438 18 2.8438V15C18 15.3438 17.875 15.6562 17.5625 15.8125L13.4688 17.9062C13.3438 17.9688 13.1875 18 13.0312 18C12.9062 18 12.7188 17.9375 12.5312 17.9062L7.0625 16.0625L3.4375 17.9062C3.3125 17.9688 3.1562 18 3.0312 18C2.4688 18 2 17.6562 2 17V4.9688C2 4.6562 2.125 4.2812 2.4375 4.125L6.4375 2.125C6.64583 2.02083 6.81076 2.00347 6.95035 2.00058L7.0312 2C7.1875 2 7.309 2.0099 7.6562 2.125ZM8 4.3438V14.2812L12 15.625V5.6875L8 4.3438ZM16 4.5938L14 5.5938V15.375L16 14.375V4.5938ZM6 4.5938L4 5.5938V15.375L6 14.375V4.5938Z" fill="#1A1C1F"/>
</g>
<defs>
<clipPath id="clip0_186_74">
<rect width="20" height="20" fill="white"/>
</clipPath>
</defs>
</svg>

<svg xmlns="http://www.w3.org/2000/svg" width="20" height="20" fill="none"><g clip-path="url(#a)"><path fill="#1A1C1F" fill-rule="evenodd" d="m7.656 2.125 5.282 1.75L16.5 2.094c.15-.075.313-.094.563-.094.437 0 .937.344.937.844V15c0 .344-.125.656-.437.813l-4.094 2.093a1 1 0 0 1-.438.094c-.125 0-.312-.062-.5-.094l-5.469-1.843-3.625 1.843a1 1 0 0 1-.406.094C2.47 18 2 17.656 2 17V4.969c0-.313.125-.688.438-.844l4-2c.208-.104.373-.122.512-.124L7.031 2c.157 0 .278.01.625.125M8 4.344v9.937l4 1.344V5.688zm8 .25-2 1v9.781l2-1zm-10 0-2 1v9.781l2-1z" clip-rule="evenodd"/></g><defs><clipPath id="a"><path fill="#fff" d="M0 0h20v20H0z"/></clipPath></defs></svg>
